X:1
T:Das Rheingold Scene 2 Transformation Music (Piano Score)
T:Das Rheingold Transformation Music (Piano Score)
T:WWV86A, Richard Wagner
T:Scene 2
T:Made with Musescore 2.3 by M. R. July 15th, 2018.
C:WWV86A, Richard Wagner
%%score { ( 1 4 ) | ( 2 3 ) }
L:1/8
Q:1/4=80
M:4/4
K:G
V:1 bass nm="Piano" snm="Pno."
V:4 bass 
V:2 bass 
V:3 bass 
V:1
!p!"^Mässig" ([^G,,E,]/4^D,/4E,/4D,/4E,/4D,/4E,/4D,/4 E,/4D,/4E,/4D,/4E,/4D,/4E,/4D,/4 (!///-!E,) =F,) (!///-!_G, F,) | %1
"_cresc." (!///-!^F,2 =G,2) (!///-!_A, G,) (!///-!^G, =A,) | %2
 (!///-!_B, A,) (!///-!^G, A,) (!///-!B, A,) (!///-!G, A,) | %3
 (!///-!^A, B,) (!///-!=C B,) (!///-!C _D) (!///-!=D ^C) | %4
!p!!<(! (!///-![F,D]2 _E2 !///-![F,D]2 E2)!<)! x4 | %5
[K:treble] ([_B,_E_B]>E D/A/_A/_D/ C/G/^F/=B,/ _B,/=F/=E/=A,/) | %6
[K:bass]!p!!<(! (!///-![^D,^G,]2 ^B,2 !///-!D, B, D,) z!<)! x4 | %7
[K:treble]!>(! (A>E ^D/^G/=G/=D/ ^C/!>)!F/=F/=C/ B,/E/_E/_B,/ | %8
 ([F,A,]/)!p!D/F/!<(!a/ !arpeggio![^E^c^g]!arpeggio![=E=c=g] !arpeggio![^DBf]!arpeggio![=D_B=f]!arpeggio![^CAe]!arpeggio![=C_A_e] x4 | %9
 [=B,G=d])!<)!!mp! (!arpeggio![G_e_b]"_cresc."!arpeggio![^Fda]!arpeggio![=F_d_a] !arpeggio![=Ecg]!arpeggio![^D=B^f]!arpeggio![=D_B=f]!arpeggio![^CA=e] x4 | %10
 [=C_A_e])!f! (!arpeggio![^G=e=b]!arpeggio![=G_e_b]!arpeggio![^Fda] !arpeggio![=F_d_a]!arpeggio![=Ecg]!arpeggio![^D=B^f]!arpeggio![=D_B=f] x4 | %11
 [^CAe])!ff! ([A=f=c']!<(![^Geb][=G_e_b] [^Fda][=F_d_a][=Ecg][^D=B^f]!<)! x4 | %12
!ff! ([=D=F_B]/)!f![^CA]/[=C_A]/[=B,G]/!f! _G/!f!_d/c/=F/)[K:bass]!f! ([^G,=B,=E]/!f!"_dim."[=G,_E]/[^F,D]/[=F,_D]/ [E,C]/G/[^F,^F]/=B,/) | %13
 ([=F,_B,]/[E,A,]/[_E,_A,]/[D,G,]/ [_D,_G,]/_D/[C,C]/=F,/ [B,,=E,]/[_B,,_E,]/[=A,,=D,]/[_A,,_D,]/ [G,,C,]/G,/[^F,,^F,]/=B,,/ || %14
[K:Bb][M:3/4][Q:1/4=100]!mp!!>(! ([B,,D,F,]4) [C,=E,]2!>)! |!p! [B,,D,]4 [A,,C,][G,,B,,] | %16
!p! (A,,/)=E,,/F,,/B,,/ =B,,/^F,,/G,,/C,/"_cresc." ^C,/^G,,/A,,/D,/ | %17
 _E,/B,,/=B,,/=E,/!<(! F,/C,/_D,/_G,/ =G,/=D,/=E,/=A,/)!<)! |!mf!!>(! ([B,DF]4 [C=E]2!>)! | %19
!p! [B,D]4 [A,C][G,B,] |!p! ([^C,A,]/)=E,/F,/B,/"_cresc." =B,/^F,/G,/C/ _D/_A,/=A,/=D/ | %21
[K:treble] E/B,/=B,/=E/ F/C/^C/!f!^F/!<(! G/D/_E/_A/!<)! |!f!!>(! ([_EG]4) [DF]2!>)! | %23
"_dim." [G,-CE]4 [G,B,D][A,C] |[K:bass]!p! [B,,F,B,D]4)"_cresc." ([F,B,]/[_G,_C]/)([G,C]/[F,B,]/) | %25
 ([F,B,]/[K:treble][_CE]/)([CE]/[B,D]/) ([B,D]/[E_G]/)([EG]/[DF]/)!f!!<(! ([DF]/_A/)([FA]/[D=c]/)!<)! | %26
!f! ([_Ac]4!>(!"_dim." [GB]2 | [F_A]4 [EG]!>)!F || %28
[K:Db][Q:1/4=120]"^Beschleunigend"!p! [B,D=G]3) z/ F/ (!>!F=E) | %29
[K:bass] (!>!A,2 =G,) z/[K:treble]"_cresc." A/ (!>!A=G) | %30
[K:bass] (!>!B,2 =A,) z/[K:treble] [B,B]/ (!>![B,B][=A,=A]) | %31
[K:bass] (!>!D2 C) z/[K:treble]!f! [Dd]/ (!>![Dd][Cc]) | %32
[M:9/8][K:bass][Q:1/4=128]"^Sehr Schnell" (_C>B,F,) (A,G,>!p!=D, F,2 C) x7/6 | %33
 (_C>B,F,) (A,G,>=D, F,2 E) x/ |!p! (E>=DA,) (_CB,>F, A,2 E) x/ | (E>=DA,) (_CB,>F, A,2 [G,G]) x/ | %36
[M:9/8]!p![Q:1/2=90] ([G,G]>[F,F]_C) ([E,E][=D,=D]>A,) (CB,>A,) | %37
"_cresc." ([G,G]>[F,F]_C) ([E,E][=D,=D]>A,)[K:treble] (AG>D) | %38
[Q:1/2=87] ([_C_c]>[B,B]F) ([A,A][G,G]>=D) (GF>C) | ([_C_c]>[B,B]F) ([A,A][G,G]>=D) (_dc>A) | %40
 ([Ee]>[=D=d][Q:1/2=85]A) ([_C_c][B,B]>F) (AG>=D) | %41
 ([Ee]>[Q:1/2=84][=D=d]A) ([_C_c][B,B]>F) (AG>=D) | ([Gg]>[Ff]_c) ([Ee][=D=d]>A) (c[Q:1/2=83]B>F) | %43
 ([Gg]>[Ff]_c) ([Ee][=D=d]>A) (cB>F) |!f![Q:1/2=80] ([=ceb]>ge) ([ceb]>ge) ([ceb]>ge) | %45
 ([ceb]>ge) ([ceb]>ge) ([ceb]>ge) | [cegb]!f! [Geg]2- [Geg]"_cresc." ([Ece]2- [Ece][Gc][E=A]) | %47
 ([CG][=A,E][G,C] [A,E][CG][E=A] [Gc][Ae][cg] | [cegb]) [Geg]2- [Geg] ([Ece]2- [Ece][Gc][E=A]) | %49
 [CG][=A,E][G,C] [A,E][CG][E=A]!ff! (4:3:4([Gc][Ae][cg][Bb]) | %50
!ff! .[dbd']>.[dbd'].[dbd'] .[dbd'].[Bgb].[c=ac'] .[dbd']>.[dbd'].[dbd'] | %51
 .[dbd']>.[dbd'].[dbd'] .[dbd'].[Bgb].[c=ac'] .[dbd']>.[dbd'].[dbd'] | %52
 [Bgb]>[Bgb][Bgb] [Bgb][Geg][=Af=a] [Bgb]>[Bgb][Bgb] | %53
 [Bgb]>[Bgb][Bgb] [Bgb][Geg][=Af=a] [Bgb]>[Bgb][Bgb] | %54
 [Geg]>[Geg][Geg] [Geg][Gce][Gdf] [Geg]>[Geg][Geg] | %55
!ff! [=Ace]>[Ece][Ece] [Ece][EAc][EBd] [Ece]>[Ece][Ece] | %56
 [E=Ac]>[EA][EGB] [CAc]>[CEG][CF_A] [_CG=A]>[=A,=CE][A,DF] | %57
 [CEG]>[CEG][CEG] [CEG][CE][CDF] [CEG]>[CEG][CEG] | .[CEG]>.[CEG].[CEG] .[CEG].D.E .F>.F.F | %59
[K:bass]!f! [F,F]>[F,F][F,F] [F,F][D,D][E,E] [F,F]>[F,F][F,F] | %60
 [F,F]>FF F[D,D][E,E] [F,F]>[F,F][F,F] | [F,F]>[F,F][F,F] [F,F][D,D][E,E] [F,F]>[F,F][F,F] | %62
 [F,F]>[F,F][F,F] [F,F][D,D][E,E] [F,F]>[F,F]!f![F,F] | %63
!f!"_dim." [F,F]>[F,F][F,F] [F,F][D,D][E,E] [F,F]>[F,F][F,F] | %64
 [F,F]>[F,F][F,F] [F,F][D,D][E,E] [F,F]>[F,F][F,F] | %65
 [F,F]>[F,F][F,F] [F,F][D,D][E,E] [F,F]>[F,F][F,F] | %66
 [F,F]>[F,F][F,F] [F,F][D,D][E,E]!p! [F,F]>[F,F][F,F] |!f! [F,F]>FF!f! .F.F.F F>.F.F | %68
[K:treble] [F,F]>.F!f!.F .F.F.F .F>.F.F |"_cresc." [F,F]>.F.F .F.F.F .F>.F.F | %70
 [F,F]>.F.F .F.F.F F>.F.F | [F,F]>.[F,F].[F,F] .[F,F].[F,F].[F,F] [F,F]>.[F,F].[F,F] | %72
!ff! [F,F]>.[F,F].[F,F] .[F,F].[F,F].[F,F] [F,F]>.[F,F].[F,F] | %73
 [F,F]>.[F,F].[F,F] .[F,F].[F,F].[F,F] [F,F]>.[F,F].[F,F] | %74
!f! [F,F]>.[F,F].[F,F] .[F,F].[F,F].[F,F] [F,F]>.[F,F].[F,F] | %75
[K:bass]!p! F,>"_dim."F,F, F,D,E, F,>F,F, | F,>F,F, F,D,E, F,>F,!p!F, | %77
"_cresc." F,>F,F, F,D,E, F,>F,F, | F,>F,F, F,D,E, F,>F,F, | %79
 [F,F]>[F,F][F,F] [F,F][D,D][E,E] [F,F]>[F,F][F,F] | %80
 [F,F]>[F,F][F,F] [F,F][D,D][E,E] [F,F]>[F,F][F,F] | %81
 [F,F]>[F,F][F,F] [F,F][D,D][E,E] [F,F]>[F,F][F,F] | %82
 [F,F]>[F,F][F,F] [F,F][D,D][E,E] [F,F]>[F,F][F,F] | %83
[K:treble]!f! [CEG]>[CEG][CEG] [CEG][CE][DF] [CEG]>[CEG][CEG] | %84
!f! [EGB]>[EGB][EGB] [EGB][EG][FA] [EG=A]>[EGA][EGA] | %85
!f! [=GBd]>[GBd][GBd] [GBd][GB][A_c] [_GB=c]>[GBc][GBc] | %86
[M:9/8] [=Ace]>[Ace][Ace]"_cresc." [Ace][Ac][ce] [eg]>[ce][eg] | %87
!ff! [cegb] [eg]2 [ce]2 .c =A>[I:staff +1].G.E | %88
!ff![I:staff -1] [cegb] [eg]2 [ce]2 .c =A>[I:staff +1].G.E | %89
!ff![I:staff -1] [d=ebd'] [=gb]2 [eg]2 .e d>.B=G |!ff! =G>=ED[K:bass] B,=G,=E, D,>B,,=G,, |] %91
V:2
 [E,,,E,,]/ ^G,,/4^^F,,/4G,,/4F,,/4G,,/4F,,/4 G,,/4F,,/4G,,/4F,,/4G,,/4F,,/4G,,/4F,,/4 (!///-!G,, A,,) (!///-!_B,, A,,) | %1
 (!///-!^A,,2 B,,2) (!///-!C, B,,) (!///-!^B,, ^C,) | %2
 (!///-!D, ^C,) (!///-!^B,, C,) (!///-!D, C,) (!///-!B,, C,) | %3
 (!///-!^^C, ^D,) (!///-!E, D,) (!///-!E, =F,) (^F,/4^E,/4F,/4E,/4F,/4E,/4F,/4) z/4 | %4
 [F,,,F,,]2 [G,,,G,,] [^G,,,^G,,][A,,,A,,][_B,,,_B,,] [=B,,,=B,,][^C,,^C,][D,,D,] [_E,,_E,][=E,,=E,][F,,F,] | %5
 G,>G, F,/A,/=F,/_A,/ =E,/G,/^D,/^F,/ =D,/=F,/^C,/E,/ | %6
 [^B,,,^B,,]2 [^C,,^C,] [^^C,,^^C,][^D,,^D,][E,,E,] [^E,,^E,][F,,F,][^G,,^G,] [A,,A,][^A,,^A,][^B,,^B,] | %7
 ^C>C ^B,/B,/=B,/B,/ ^A,/A,/=A,/A,/ ^G,/G,/=G,/G,/ | %8
 ([F,,,F,,]2 [G,,,G,,] [^G,,,^G,,][A,,,A,,][^A,,,^A,,] [B,,,B,,][^C,,^C,][D,,D,] [^D,,^D,][E,,E,][F,,F,] | %9
 [G,,G,]) ([G,,,G,,][_A,,,_A,,] [=A,,,=A,,][_B,,,_B,,][=B,,,=B,,] [C,,C,][D,,D,][_E,,_E,] [=E,,=E,][=F,,=F,][G,,G,] | %10
 [_A,,_A,]) ([^G,,,^G,,][=A,,,=A,,] [^A,,,^A,,][B,,,B,,][^B,,,^B,,] [^C,,^C,][^D,,^D,][E,,E,] [^E,,^E,][F,,F,][^G,,^G,] | %11
 [A,,A,]) [A,,,A,,][_B,,,_B,,] [=B,,,=B,,][C,,C,][^C,,^C,] [D,,D,][=E,,=E,][=F,,=F,] [^F,,^F,][G,,G,][A,,A,] | %12
!ff! (!>![_B,,_B,]2!ff! !>![_B,,,_B,,]) z!ff! (!>![=E,,=E,]2!f! !>![E,,,E,,]) (^D, | %13
 =D,/^C,/=C,/=B,,/ _B,,A,, ^G,,/=G,,/^F,,/=F,,/ E,,^D,, ||[K:Bb][M:3/4] ([G,,,-D,,G,,-]6) | %15
 [G,,,=E,,G,,]6 | [A,,,^C,,]) (D,,/A,,,/ ^D,,/A,,,/=E,,/A,,,/ F,,/A,,,/^F,,/A,,,/ | %17
 G,,/A,,,/^G,,/A,,,/ A,,/A,,,/_B,,/A,,,/ =B,,/A,,,/^C,/G,,,/ | ([G,,-D,]6) | [G,,,G,,]6 | %20
 [A,,,A,,]) (D,/A,,/ ^D,/A,,/=E,/A,,/ F,/=A,,/^F,/A,,/ | %21
 G,/A,,/^G,/A,,/ A,/A,,/^A,/=A,,/ =B,/A,,/C/=A,,/ | [F,,C,]6-) | [F,,C,]6 | %24
 z2 (D,/E,/)(E,/D,/) (D,/E,/)(E,/D,/) | (D,/_G,/)(G,/F,/) (F,/=A,/)(A,/B,/) (B,/D/) z | [F,,F,]6- | %27
 [F,,F,]6 ||[K:Db]!pp! !///-!F,,,3 F,,3 | !///-!F,,,3 F,,3 | !///-!F,,,3 F,,3 | !///-!F,,,3 F,,3 | %32
[M:9/8] x25/6!pp! !///-![F,,,B,,,] F,, !arpeggio![F,,,B,,,F,,] (3z/ x/ .[B,,,A,,]/ .[B,,,A,,] z | %33
 x7/2 !///-![F,,,B,,,] F,, !arpeggio![F,,,B,,,F,,] (3z/ x/ .[B,,,A,,]/ .[B,,,A,,] z | %34
 x7/2 !///-![F,,,B,,,] F,, !arpeggio![F,,,B,,,F,,] (3z/ x/ .[B,,,_C,]/ .[B,,,C,] z | %35
 x7/2 !///-![F,,,B,,,] F,, !arpeggio![F,,,B,,,F,,] (3z/ x/ .[B,,,_C,]/ .[B,,,C,] z | %36
[M:9/8] !///-![F,,,B,,,] F,, !arpeggio![F,,,B,,,F,,] (3z3/4 x3/4 .[B,,,A,,]/ .[B,,,A,,] z3/2 x13/6 | %37
 !///-![F,,,B,,,] F,, !arpeggio![F,,,B,,,F,,] (3z3/4 x3/4 .[B,,=D,F,]/ .[B,,D,F,] z3/2 x13/6 | %38
 !///-![F,,,B,,,] F,, !arpeggio![F,,,B,,,F,,] (3z3/4 x3/4 .[B,,_C]/ .[B,,C] z3/2 x13/6 | %39
 !///-![F,,,B,,,] F,, !arpeggio![F,,,B,,,F,,] (3z3/4 x3/4 .[B,,F,A,_C]/ .[B,,F,A,C] z3/2 x13/6 | %40
 !///-![F,,,B,,,] F,, !arpeggio![F,,,B,,,F,,] (3z3/4 x3/4 .[B,,F,A,_C]/ .[B,,F,A,C] z3/2 x13/6 | %41
 !///-![F,,,B,,,] F,, !arpeggio![F,,,B,,,F,,] (3z3/4 x3/4 .[B,,F,A,_C]/ .[B,,F,A,C] z3/2 x13/6 | %42
 !///-![F,,,B,,,] F,, !arpeggio![F,,,B,,,F,,] (3z3/4 x3/4 .[B,,F,A,_C]/ .[B,,F,A,C] z3/2 x13/6 | %43
 !///-![F,,,B,,,] F,, !arpeggio![F,,,C,,F,,] (3z3/4 x3/4 .[B,,F,A,_C]/ (3(CB,) z3/2 x7/3 | %44
 ([E,G,B,E]3 B,/).B,/ .E.G x3 |[K:treble] !>!B6[K:bass] x3 | %46
 !arpeggio![F,,,F,,]2 [E,G,=A,C]2 !//-!F,,, F,, x3 | !//-!F,,,3 F,,3 x3 | %48
 [F,,,F,,]2 [E,G,=A,C]2 !//-!F,,, F,, x3 | F,,,F,, !arpeggio![F,,,F,,] z3/2 [E,G,B,E]>[E,E] x5/2 | %50
 ([G,B,EG]3 [E,E]/).[E,E]/[K:treble] .[G,G].[B,B] x3 | (!>![DEGBd]6[K:bass] x3 | %52
 !arpeggio![F,,,F,,]2[K:treble] !>![Cc]3 !>![G,G]) x3 | (!>![B,EGB]6[K:bass] x3 | %54
 !arpeggio![F,,,F,,]2[K:treble] !>![=A,=A]3[K:bass] !>![E,E]) x3 | (!>![G,=A,EG]6 x3 | %56
 !arpeggio![F,,,F,,]2 !>![E,E]3 !>![C,C] x3 | (!>![B,,B,]6) x3 | !>!=A,,4-) A,, z3/2 x5/2 | %59
 (!>!G,6- x3 | G,2 !>!F,3 !>!C,) x3 | (!>!E,6- x3 | E,2 !>!D,3 !>!=A,,) x3 | (!>!C,6- x3 | %64
 C,2 !>!B,,3 !>!F,,) x3 | (!>!_A,,6 x3 | G,,6 x3 | F,,2) .F,,.F, .F,,.F,, x3 | %68
 .F,,,.F,, .F,,.F, .F,,.F,, x3 | .F,,,.F,, .F,,.F, .F,,.F,, x3 | .F,,,.F,, .F,,.F, .F,,.F,, x3 | %71
 .F,,,.F,, .F,,,.F,, .F,,,.F,, x3 | .F,,,.F,, .F,,,.F,, .F,,,.F,, x3 | %73
 .F,,,.F,, .F,,,.F,, .F,,,.F,, x3 | .F,,,.F,, .F,,,.F,, .F,,,.F,, x3 | ([G,,,G,,]6- x3 | %76
 [G,,,G,,]2 [F,,,F,,]3 [C,,C,]) x3 | ([B,,,B,,]6- x3 | [B,,,B,,]2 [=A,,,=A,,]3 [E,,E,]) x3 | %79
 ([D,,D,]6- x3 | [D,,D,]2 [C,,C,]3 [G,,G,]) x3 | ([F,,F,]6- x3 | [F,,F,]2 [E,,E,]3 [C,C]) x3 | %83
 ([B,,B,]4 [=A,,=A,]2) x3 | ([D,D]4 [C,C]2) x3 | ([_F,_F]4 [E,E]2) x3 | %86
[M:9/8][K:treble] G3 G[EG][G=A] [Ac]>[GA][Ac] | [CEGB]3- [CEGB]2 .=A G>.E.C | %88
 [CEGB]3- [CEGB]2 .=A G>.E.C | [=G,B,=EB]3- [G,B,EB]2 .d B>.=GE | %90
 =E>DB,[K:bass] =G,=E,D, B,,>=G,,=E,, |] %91
V:3
 x8 | x8 | x8 | x8 | x12 | G,,/_B,,/_E,/G,/ x6 | x12 | ^C,/E,/A,/^C/ x6 | x12 | x12 | x12 | x12 | %12
 x8 | (!>!_B,,2 !>!_B,,,) z (!>!E,,2 !>!E,,,) x ||[K:Bb][M:3/4] x6 | x6 | x6 | x6 | x6 | x6 | x6 | %21
 x6 | x6 | x6 | [F,,,F,,]6 | x6 | x6 | x6 ||[K:Db] x6 | x6 | x6 | x6 |[M:9/8] x61/6 | x19/2 | %34
 x19/2 | x19/2 |[M:9/8] x9 | x9 | x9 | x9 | x9 | x9 | x9 | x6 .[B,,F,A,] z3/2 x/ | %44
 z3 !arpeggio![F,,,F,,]2 z3 x |[K:treble][K:bass] z3 !//-!F,,,2 F,,2 x2 | x9 | x9 | x9 | x9 | %50
 z3 [F,,,F,,][K:treble] x5 |[K:bass] z3 !//-!F,,,2 F,,2 x2 | x2[K:treble] x7 | %53
[K:bass] z3 !//-!F,,,2 F,,2 x2 | x2[K:treble] x3[K:bass] x4 | z3 !//-!F,,,2 F,,2 x2 | x9 | %57
 z3 !//-!F,,,2 F,,2 x2 | !//-!!arpeggio!F,,,2 F,,2 !arpeggio![F,,,F,,] x4 | z3 !//-!F,,,2 F,,2 x2 | %60
 !arpeggio![F,,,F,,]2 x7 | z3 !//-!F,,,2 F,,2 x2 | !arpeggio![F,,,F,,]2 x7 | %63
 z3 !//-!F,,,2 F,,2 x2 | !arpeggio![F,,,F,,]2 x7 | z3 !//-!F,,,2 F,,2 x2 | %66
 !//-!!arpeggio!F,,,3 F,,3 x3 | F,,, x8 | x9 | x9 | x9 | x9 | x9 | x9 | x9 | x9 | x9 | x9 | x9 | %79
 x9 | x9 | x9 | x9 | x9 | x9 | x9 |[M:9/8][K:treble] x9 | x9 | x9 | x9 | x3[K:bass] x6 |] %91
V:4
 x8 | x8 | x8 | x8 | x12 |[K:treble] x8 |[K:bass] x12 |[K:treble] E2 x6 | x12 | x12 | x12 | x12 | %12
 x2 _B,A,[K:bass] x4 | x8 ||[K:Bb][M:3/4] x6 | x6 | x6 | x6 | G,6 | =E,6 | x6 |[K:treble] x6 | %22
 =A,6 | x6 |[K:bass] z2 (F,/_G,/)(G,/F,/) x2 | x/[K:treble] x11/2 | D6 | C4- CD || %28
[K:Db] (!>!F,2 =E,) x/ [B,D]/ [B,D]2 |[K:bass] [B,,D,F,]3 x/[K:treble] [B,D=E]/ [B,DE]2 | %30
[K:bass] [C,_E,_G,]3 x/[K:treble] [CEG]/ [CEG]2 |[K:bass] [E,G,B,]3 x/[K:treble] [EG=A]/ [EGA]2 | %32
[M:9/8][K:bass] x3 [=D,F,A,]2 x7/3 ._C,/ .[C,D,] x4/3 | x20/3 ._C,/ .[C,=D,] x4/3 | %34
 x20/3 .=D,/ .[D,F,] x4/3 | x20/3 .=D,/ .[D,F,] x4/3 |[M:9/8] x11/2 .[=D,F,]/ .[D,F,] x2 | %37
 x6[K:treble] .[A,_C] x2 | x11/2 .A,/ .[A,=D] x2 | x6 .[=DF] x2 | x11/2 .=D/ .[DF] x2 | %41
 x11/2 .=D/ .[DF] x2 | x11/2 .[=DF]/ .[DFA] x2 | x11/2 .[=DF]/ .[DFA] x2 | x9 | x9 | x9 | x9 | x9 | %49
 x9 | x9 | x9 | x9 | x9 | x9 | x9 | x9 | x9 | !>!=A,6- A,3/2[I:staff +1]!>!F,3/2 | %59
[I:staff -1][K:bass] x9 | x9 | x9 | x9 | x9 | x9 | x9 | x9 | x9 |[K:treble] x9 | x9 | x9 | x9 | %72
 x9 | x9 | x9 |[K:bass] x9 | x9 | x9 | x9 | x9 | x9 | x9 | x9 |[K:treble] x9 | x9 | x9 | %86
[M:9/8] x9 | x9 | x9 | x9 | x3[K:bass] x6 |] %91

